icons/window/top-bar.svg

<?xml version="1.0" encoding="UTF-8" standalone="no"?>
<svg
   width="24"
   height="24"
   version="1.1"
   id="svg4"
   sodipodi:docname="top-bar.svg"
   inkscape:version="1.1 (ce6663b3b7, 2021-05-25)"
   xmlns:inkscape="http://www.inkscape.org/namespaces/inkscape"
   xmlns:sodipodi="http://sodipodi.sourceforge.net/DTD/sodipodi-0.dtd"
   xmlns="http://www.w3.org/2000/svg"
   xmlns:svg="http://www.w3.org/2000/svg"
   xmlns:rdf="http://www.w3.org/1999/02/22-rdf-syntax-ns#"
   xmlns:cc="http://creativecommons.org/ns#"
   xmlns:dc="http://purl.org/dc/elements/1.1/">
  <metadata
     id="metadata10">
    <rdf:RDF>
      <cc:Work
         rdf:about="">
        <dc:format>image/svg+xml</dc:format>
        <dc:type
           rdf:resource="http://purl.org/dc/dcmitype/StillImage" />
      </cc:Work>
    </rdf:RDF>
  </metadata>
  <defs
     id="defs8" />
  <sodipodi:namedview
     pagecolor="#ffffff"
     bordercolor="#666666"
     borderopacity="1"
     objecttolerance="10"
     gridtolerance="10"
     guidetolerance="10"
     inkscape:pageopacity="0"
     inkscape:pageshadow="2"
     inkscape:window-width="1920"
     inkscape:window-height="1043"
     id="namedview6"
     showgrid="true"
     inkscape:zoom="27.5"
     inkscape:cx="9.7636364"
     inkscape:cy="8.5818182"
     inkscape:window-x="1920"
     inkscape:window-y="0"
     inkscape:window-maximized="1"
     inkscape:current-layer="svg4"
     inkscape:pagecheckerboard="0">
    <inkscape:grid
       type="xygrid"
       id="grid1404" />
  </sodipodi:namedview>
  <g
     transform="matrix(1.249084,0,0,1.249084,-94.272138,-221.5758)"
     style="display:inline;stroke-width:0.800587"
     id="g3340">
    <path
       id="path5525-3"
       style="color:#000000;font-style:normal;font-variant:normal;font-weight:normal;font-stretch:normal;font-size:medium;line-height:normal;font-family:sans-serif;text-indent:0;text-align:start;text-decoration:none;text-decoration-line:none;text-decoration-style:solid;text-decoration-color:#000000;letter-spacing:normal;word-spacing:normal;text-transform:none;writing-mode:lr-tb;direction:ltr;baseline-shift:baseline;text-anchor:start;white-space:normal;clip-rule:nonzero;display:inline;overflow:visible;visibility:visible;opacity:1;isolation:auto;mix-blend-mode:normal;color-interpolation:sRGB;color-interpolation-filters:linearRGB;solid-color:#000000;solid-opacity:1;fill:#808080;fill-opacity:1;fill-rule:nonzero;stroke:none;stroke-width:3.20298;stroke-linecap:butt;stroke-linejoin:miter;stroke-miterlimit:4;stroke-dasharray:none;stroke-dashoffset:0;stroke-opacity:1;marker:none;color-rendering:auto;image-rendering:auto;shape-rendering:auto;text-rendering:auto;enable-background:accumulate"
       d="m 4,3 c -1.244166,0.0146 -2.1540775,-0.030604 -2.8984375,0.3847656 -0.372176,0.20765 -0.665291,0.5593869 -0.828125,0.9980469 -0.162877,0.43866 -0.22265625,0.9595775 -0.22265625,1.6171875 l -0.05078125,7 h 1 l 0.011719,-7 h 14 l -0.01172,7 h 1 l 0.01172,-7 c 0.0011,-0.63799 -0.06005,-1.1785275 -0.222657,-1.6171875 -0.162834,-0.43865 -0.471575,-0.7903969 -0.84375,-0.9980469 -0.74436,-0.41532 -1.638646,-0.3701956 -2.882812,-0.3847656 h -0.0039 -1.980469 -4.0781248 -1.9960938 z m 5,1 h 1 v 1 h -1 z m 2,0 h 1 v 1 h -1 z m 2.011719,0 h 1 v 1 h -1 z"
       transform="translate(77.07419,178.99767)" />
  </g>
</svg>

<?xml version="1.0" encoding="UTF-8" standalone="no"?>
<svg
   xmlns:dc="http://purl.org/dc/elements/1.1/"
   xmlns:cc="http://creativecommons.org/ns#"
   xmlns:rdf="http://www.w3.org/1999/02/22-rdf-syntax-ns#"
   xmlns:svg="http://www.w3.org/2000/svg"
   xmlns="http://www.w3.org/2000/svg"
   xmlns:sodipodi="http://sodipodi.sourceforge.net/DTD/sodipodi-0.dtd"
   xmlns:inkscape="http://www.inkscape.org/namespaces/inkscape"
   width="16.025"
   height="16"
   version="1.1"
   id="svg4"
   sodipodi:docname="focus-top-bar-symbolic.svg"
   inkscape:version="1.0.2 (e86c870879, 2021-01-15)">
  <metadata
     id="metadata10">
    <rdf:RDF>
      <cc:Work
         rdf:about="">
        <dc:format>image/svg+xml</dc:format>
        <dc:type
           rdf:resource="http://purl.org/dc/dcmitype/StillImage" />
      </cc:Work>
    </rdf:RDF>
  </metadata>
  <defs
     id="defs8" />
  <sodipodi:namedview
     pagecolor="#ffffff"
     bordercolor="#666666"
     borderopacity="1"
     objecttolerance="10"
     gridtolerance="10"
     guidetolerance="10"
     inkscape:pageopacity="0"
     inkscape:pageshadow="2"
     inkscape:window-width="1920"
     inkscape:window-height="1016"
     id="namedview6"
     showgrid="true"
     inkscape:zoom="38.890873"
     inkscape:cx="7.3943779"
     inkscape:cy="4.0158854"
     inkscape:window-x="0"
     inkscape:window-y="27"
     inkscape:window-maximized="1"
     inkscape:current-layer="svg4">
    <inkscape:grid
       type="xygrid"
       id="grid1404" />
  </sodipodi:namedview>
  <g
     transform="translate(-77.07419,-178.99767)"
     style="display:inline"
     id="g3340">
    <path
       id="path5525-3"
       style="color:#000000;font-style:normal;font-variant:normal;font-weight:normal;font-stretch:normal;font-size:medium;line-height:normal;font-family:sans-serif;text-indent:0;text-align:start;text-decoration:none;text-decoration-line:none;text-decoration-style:solid;text-decoration-color:#000000;letter-spacing:normal;word-spacing:normal;text-transform:none;writing-mode:lr-tb;direction:ltr;baseline-shift:baseline;text-anchor:start;white-space:normal;clip-rule:nonzero;display:inline;overflow:visible;visibility:visible;opacity:1;isolation:auto;mix-blend-mode:normal;color-interpolation:sRGB;color-interpolation-filters:linearRGB;solid-color:#000000;solid-opacity:1;fill:#808080;fill-opacity:1;fill-rule:nonzero;stroke:none;stroke-width:4.00079;stroke-linecap:butt;stroke-linejoin:miter;stroke-miterlimit:4;stroke-dasharray:none;stroke-dashoffset:0;stroke-opacity:1;marker:none;color-rendering:auto;image-rendering:auto;shape-rendering:auto;text-rendering:auto;enable-background:accumulate"
       d="M 4 3 C 2.755834 3.0146 1.8459225 2.9693956 1.1015625 3.3847656 C 0.7293865 3.5924156 0.4362715 3.9441525 0.2734375 4.3828125 C 0.1105605 4.8214725 0.05078125 5.34239 0.05078125 6 L 0 13 L 1 13 L 1.0117188 6 L 15.011719 6 L 15 13 L 16 13 L 16.011719 6 C 16.012819 5.36201 15.951669 4.8214725 15.789062 4.3828125 C 15.626228 3.9441625 15.317487 3.5924156 14.945312 3.3847656 C 14.200952 2.9694456 13.306666 3.01457 12.0625 3 L 12.058594 3 L 10.078125 3 L 6 3 L 4.0039062 3 L 4 3 z M 9 4 L 10 4 L 10 5 L 9 5 L 9 4 z M 11 4 L 12 4 L 12 5 L 11 5 L 11 4 z M 13.011719 4 L 14.011719 4 L 14.011719 5 L 13.011719 5 L 13.011719 4 z "
       transform="translate(77.07419,178.99767)" />
  </g>
</svg>
